X:47AkNh
T:Aiken Drum (Nots)
S:Nottingham Music Database
N:this sounds nothing like Captain Kidd
M:4/4
L:1/4
K:A
A/2B/2|&quot;A&quot;cc d/2c/2 B/2A/2|&quot;D&quot;F2 A3/2F/2|&quot;A&quot;E3/2F/2
AE|
&quot;B7&quot;cB &quot;E7&quot;BA/2B/2|\&quot;A&quot;cc d/2c/2
B/2A/2|&quot;D&quot;F2 A3/2F/2|&quot;E7&quot;EE FG|&quot;A&quot;A3::
A/2B/2|&quot;A&quot;cc cB/2A/2|&quot;D&quot;dd f3/2d/2|&quot;A&quot;ce
cA|
&quot;Bm&quot;cB &quot;E7&quot;BA/2B/2&quot;A&quot;|cc d/2c/2
B/2A/2|&quot;D&quot;F2 A3/2F/2|&quot;E7&quot;EE FG|&quot;A&quot;A3:|
